X:1
T:Title
%%score [ ( 1 2 ) ( 3 4 ) ]
L:1/8
Q:1/4=100
M:4/4
K:E
V:1 treble nm="Midi_74"
V:2 treble 
V:3 bass nm="Midi_69"
V:4 bass 
V:1
"^Thanksgiving (L.M.)""^John Bacchus Dykes\n(1823-76)""^Washington Gladden\n(1836-1918)""^O Master, let me walk with Thee" E2 | %1
 G2 B2 e2 B2 | A2 B2 G2 F2 | G2 ^A2 B2 B2 | d2 c2[Q:1/4=50] !fermata!B2 || B2 | A2 G2 A2 =d2 | %7
 c2 B2 c2 ^d2 | e2 A2 G2 F2 | G2 F2[Q:1/4=50] !fermata!E2 |] %10
V:2
 E2 | E2 D2 E2 E2 | E2 D2 E2 D2 | E2 E2 D2 E2 | F2 F2 D2 || =D2 | C2 C2 C2 F2 | E2 E2 E2 F2 | %8
w: O|Mas- ter, let me|walk with Thee In|low- ly paths of|ser- vice free;|Thy|sec- ret tell; help|me to bear The|
w: Help|me the slow of|heart to move By|some clear win- ning|word of love;|Teach|me the way- ward|feet to stay, And|
w: ~~Teach|me Thy pa- tience;|still with Thee In|clo- ser, dear- er|com- pa- ny,|In|work that keeps faith|sweet and strong, In|
w: In|hope that sends a|shin- ing ray Far|down the fut- ure's|broaden- ing way,|In|peace that on- ly|Thou canst give, With|
 E2 F2 E2 E2 | E2 D2 E2 |] %10
w: strain of toil, the|fret of care.|
w: guide them in the|home- ward way.|
w: trust that tri- umphs|o- ver wrong,|
w: Thee, O Mas- ter,|let me live.|
V:3
 G,2 | B,2 A,2 B,2 B,2 | C2 B,2 B,2 B,2 | B,2 C2 B,2 B,2 | B,2 ^A,2 B,2 || F,2 | F,2 ^E,2 F,2 A,2 | %7
 A,2 G,2 A,2 A,2 | B,2 B,2 B,2 C2 | B,2 B,2 G,2 |] %10
V:4
 E,2 | E,2 F,2 G,2 G,2 | F,2 B,,2 E,2 B,,2 | E,2 C,2 G,2 G,2 | F,2 F,2 !fermata!B,,2 || B,,2 | %6
 C,2 C,2 F,2 =D,2 | E,2 E,2 A,2 F,2 | G,2 D,2 E,2 A,,2 | B,,2 B,,2 !fermata!E,2 |] %10

